X:40
T:Hearts of Oak. JC.039
R:Air
S:John Clare,Poet,Helpston. (1793-1864)
N:MR> bar 8 an unnecessary Fsharp accidental omitted. bar 9, bottom note
N:of chord unclear,here given as C.
N:Song text exists. See Deacon.
O:England
A:Northamptonshire
Z:vmp.P. Headford
M:C|
L:1/8
Q:2/4=75
K:D
” Crot”A|d2d d d2f e|d2c B A2zA|\
B2B c d2d e|f2g e f2zA|d2F G A2B c|!
d2F G A2ze|f2e d a2c d|e2e E A2z/A/G/F/|\
EDCB, [C2c2]e3/ e/|e2c d e2f3/ f/|!
f2d3/ e/ f2zf|(ed) c f d Bz2|d d3/4A2F/4 D3/zA|\
(Bc) d e f2 e d|a2A c d2z|]

